X: 3685
T: Billy In The Lowland
R: barndance
M: 4/4
K: Gmajor
D2|:G3A G2A2|B2de d2B2|d2 e2 dBGB|AG E2 E2 D2|
G3A G2A2|B2d2 gabg|agef gfed|1 BA G2 G2D2:|2 BAG2 G2ef||
|:gaba g2d2|e3d Bd3|e3d BAGB|AGE2 E4|
gaba g2d2|e3d Bd3|e3f gfed|1 BAG2 G2ef:|2 BAG2 G4||

